web-components-icons/e900-file/SVG/group-collection.svg

<?xml version="1.0" encoding="utf-8"?>
<!-- Generator: Adobe Illustrator 24.2.0, SVG Export Plug-In . SVG Version: 6.00 Build 0)  -->
<svg version="1.1" id="Layer_1" xmlns="http://www.w3.org/2000/svg" xmlns:xlink="http://www.w3.org/1999/xlink" x="0px" y="0px"
	 width="512px" height="512px" viewBox="0 0 512 512" xml:space="preserve">
<path d="M448,352H160v-32h288V352z M448,384H160v32h288V384z M448,96H160v32h288V96z M448,160H160v32h288V160z M64,192V96h64l32-32
	H32v160h128l-32-32H64z M64,416v-96h64l32-32H32v160h128l-32-32H64z"/>
</svg>

<svg xmlns="http://www.w3.org/2000/svg" viewBox="0 0 512 512"><title>group-collection</title><g id="group_collection" data-name="group collection"><path d="M448,352H160V320H448Zm0,32H160v32H448Zm0-288H160v32H448Zm0,64H160v32H448ZM64,192V96h64l32-32H32V224H160l-32-32Zm0,224V320h64l32-32H32V448H160l-32-32Z"/></g></svg>
